packages/icons/src/svg/file-txt-o.svg

<svg xmlns="http://www.w3.org/2000/svg" viewBox="0 0 32 32">
	<path class="ti-file" d="M22 0H6v14h2V2h11v10h11v18H8v-2H6v4h26V10zm-1 10V2l8 8z"/>
	<path class="ti-file-txt-o-badge" d="M8 15H0v12h26V15zm1 4H7v6H5v-6H3v-2h6zm5 6s-.9-1.756-1-2c-.09.244-1 2-1 2h-2l2-4-2-4h2s.887 1.74 1 2c.09-.26 1-2 1-2h2l-2 4 2 4zm9-6h-2v6h-2v-6h-2v-2h6z"/>
</svg>

<svg xmlns="http://www.w3.org/2000/svg" viewBox="0 0 32 32">
  <path class="ti-file" d="M22,0H6V14H8V2H19V12H30V30H8V28H6v4H32V10ZM21,10V2l8,8Z"/>
  <path class="ti-file-txt-o-badge" d="M8,15H0V27H26V15Zm1,4H7v6H5V19H3V17H9Zm5,6s-.90039-1.75586-1-2h0c-.08984.24414-1,2-1,2H10l2-4-2-4h2s.88672,1.73926,1,2h0c.08984-.26074,1-2,1-2h2l-2,4,2,4Zm9-6H21v6H19V19H17V17h6Z"/>
</svg>
